resources/Delivery.svg

<svg width="24" height="24" xmlns="http://www.w3.org/2000/svg" fill-rule="evenodd" clip-rule="evenodd"><path d="M5 18h-1c-.552 0-1-.448-1-1v-2h12v-9h4.667c1.117 0 1.6.576 1.936 1.107.594.94 1.536 2.432 2.109 3.378.188.312.288.67.288 1.035v4.48c0 1.121-.728 2-2 2h-1c0 1.656-1.344 3-3 3s-3-1.344-3-3h-4c0 1.656-1.344 3-3 3s-3-1.344-3-3zm3-1.2c.662 0 1.2.538 1.2 1.2 0 .662-.538 1.2-1.2 1.2-.662 0-1.2-.538-1.2-1.2 0-.662.538-1.2 1.2-1.2zm10 0c.662 0 1.2.538 1.2 1.2 0 .662-.538 1.2-1.2 1.2-.662 0-1.2-.538-1.2-1.2 0-.662.538-1.2 1.2-1.2zm-10-8.8h-8v-2h8v-1h-5v-1c0-.552.448-1 1-1h9c.552 0 1 .448 1 1v10h-11v-3h-2v-2h7v-1zm9 0v3h4.715l-1.427-2.496c-.178-.312-.509-.504-.868-.504h-2.42z"/></svg>

<?xml version="1.0" encoding="utf-8"?>
<!-- Generator: Adobe Illustrator 24.0.1, SVG Export Plug-In . SVG Version: 6.00 Build 0)  -->
<svg version="1.1" id="Camada_1" xmlns="http://www.w3.org/2000/svg" xmlns:xlink="http://www.w3.org/1999/xlink" x="0px" y="0px"
	 viewBox="0 0 24 24" style="enable-background:new 0 0 24 24;" xml:space="preserve">
<style type="text/css">
	.st0{fill-rule:evenodd;clip-rule:evenodd;fill:#896B45;}
</style>
<path class="st0" d="M5,18H4c-0.6,0-1-0.4-1-1v-2h12V6h4.7c1.1,0,1.6,0.6,1.9,1.1c0.6,0.9,1.5,2.4,2.1,3.4c0.2,0.3,0.3,0.7,0.3,1V16
	c0,1.1-0.7,2-2,2h-1c0,1.7-1.3,3-3,3s-3-1.3-3-3h-4c0,1.7-1.3,3-3,3S5,19.7,5,18z M8,16.8c0.7,0,1.2,0.5,1.2,1.2S8.7,19.2,8,19.2
	S6.8,18.7,6.8,18S7.3,16.8,8,16.8z M18,16.8c0.7,0,1.2,0.5,1.2,1.2s-0.5,1.2-1.2,1.2s-1.2-0.5-1.2-1.2S17.3,16.8,18,16.8z M8,8H0V6
	h8V5H3V4c0-0.6,0.4-1,1-1h9c0.6,0,1,0.4,1,1v10H3v-3H1V9h7V8z M17,8v3h4.7l-1.4-2.5C20.1,8.2,19.8,8,19.4,8C19.4,8,17,8,17,8z"/>
</svg>
